static/assets/template/assets/img/icons/essential/detailed/Shoe.svg

<svg height="105" viewBox="0 0 148 105" width="148" xmlns="http://www.w3.org/2000/svg"><g fill="none" fill-rule="evenodd" transform="translate(1 1)"><path d="m98.2 102.5c-11.5 0-23 0-34.5 0-9.9 0-17.3-4-22-12.9-11.3-21.3-17.4-32.8-21.1-31.9-.8.2-1.7 1.8-1.8 2.8-3 29.2 1.5 34.5-3.1 34.4-1.7-.1-3.4.1-3.7-2.2-.1-.9 0-1.9 0-2.8-.7-36.3.5-39.6-6.1-47.3-6.7-7.9-6.1-16.8-1.2-25.2 3.3-5.7 7.7-10.7 11.6-16 1-1.3 2-1.1 2.9-.1 1.2 1.3 2.3 2.8 3.3 4.2 10.1 14.3 35.8 50.5 49.3 61.9 6.5 5.5 15.6 4 21.2 6.1 48.2 18.5 47.8 18.5 51.1 20.7 2.4 1.6 2.1 3.7-.6 4.6-2.6.8-5.3 1.4-8 1.5-12.3.6-24.7 1.1-37 1.6-.3.3-.3.4-.3.6z" fill-rule="nonzero"/><path d="m140.9 99.6c-4 1-3.4.8-42.7 2.5v.4c-11.5 0-23 0-34.5 0-9.9.1-17.3-4-22-12.9-9.1-17.1-14.6-27.5-18.3-30.8-1-.9-1.9-1.3-2.7-1.1s-1.7 1.8-1.8 2.8c-1.7 16.7-.9 31.8-1 32.2-2.8-.7-.8-1.8-2.3-36.8-.1-1.6-.3-3.2-.8-4.7-.8-2.7-2.2-5.2-4.3-7.6-11.3-13.3.5-26.7 7.2-35.5.3.1.8.4 1.2.9 1.1 1.1 2.4 3 3 3.8 3.6 5 9.2 13 15.6 21.6.1.2.3.4.5.6 10.5 14.1 22.7 29.7 30.4 36.2 6.2 5.2 14.8 3.8 20 5.8 30.7 11.8 40.5 15.6 44.6 17.5 1.9.9 2.6 1.3 3.6 2 .2.2.4.3.6.5.9.5 1.8 1 2.6 1.5.4.4.8.7 1.1 1.1z" fill-rule="nonzero"/><path d="m132.9 94.5c-19.4 1.7-64.4 1-74.5 1-6.8 0-12.4-1.9-16.8-5.9-2-1.9-3.7-4.2-5.2-6.9-5.6-10.5-9.8-18.5-13.1-23.8-3.6-5.8-6.1-8.5-7.9-8-.2.1-.4.2-.6.4-.8-2.7-2.2-5.2-4.3-7.6-11.3-13.3.5-26.7 7.2-35.5.3.1.8.4 1.2.9 4.6 6.5 11.4 16 18.5 25.4.1.2.3.4.5.6 10.5 14.1 22.7 29.7 30.4 36.2 6.2 5.2 14.8 3.8 20 5.8 30.8 11.7 40.5 15.5 44.6 17.4z" fill-rule="nonzero"/><g stroke-linecap="round" stroke-linejoin="round" stroke-width="3"><path d="m3.1 38.7c-.7-1.4-1.1-2.2-1.5-3.5-1.6-5.8-.4-11.9 3-17.7 3.3-5.7 7.7-10.7 11.6-16 1-1.3 2-1.1 2.9-.1 1.2 1.3 2.3 2.8 3.3 4.2 12.8 18 25.7 35.9 40 52.7 2.8 3.3 5.9 6.4 9.2 9.2 4.5 3.8 10.3 4.3 16 5 1.8.2 3.5.5 5.2 1.1 9.5 3.7 19 7.4 28.6 11.1"/><path d="m5.6 42.4c-.1-.1-.2-.2-.3-.4"/><path d="m128.5 87.5c2.8 1.1 5.6 2.2 8.4 3.3 2.4 1 4.9 2.1 7 3.6 2.4 1.6 2.1 3.7-.6 4.6-2.6.8-5.3 1.4-8 1.5-34.2 1.8-47.1 1.9-71.6 2-9.9 0-17.3-4-22-12.9-4.4-8.2-8.9-16.4-13.5-24.5-1.2-2.1-2.8-4.1-4.5-5.9-.7-.8-2.2-1.7-3.1-1.4-.8.2-1.7 1.8-1.8 2.8-.5 4.9-.9 9.7-1 14.6-.1 5.7 0 11.5.1 17.3 0 1.6-.4 2.6-2.2 2.5-1.7-.1-3.4.1-3.7-2.2-.1-.9 0-1.9 0-2.8-.2-11.4-.3-22.8-.8-34.2-.1-2.1-.5-4-1.1-5.9"/><path d="m78.6 64.2c4.4 3.8 8.5 6.9 12.1 8.8"/><path d="m73.1 59.2c.1.1.3.2.4.4"/><path d="m18.8 1c4 .9 26.3 29.8 47.3 51.3"/></g></g></svg>

<?xml version="1.0" encoding="UTF-8"?>
<svg width="148px" height="105px" viewBox="0 0 148 105" version="1.1" xmlns="http://www.w3.org/2000/svg" xmlns:xlink="http://www.w3.org/1999/xlink">
    <!-- Generator: Sketch 51.2 (57519) - http://www.bohemiancoding.com/sketch -->
    <title>Shoe</title>
    <desc>Created with Sketch.</desc>
    <defs></defs>
    <g id="Page-1" stroke="none" stroke-width="1" fill="none" fill-rule="evenodd">
        <g id="Shoe" transform="translate(1.000000, 1.000000)">
            <path d="M98.2,102.5 C86.7,102.5 75.2,102.5 63.7,102.5 C53.8,102.5 46.4,98.5 41.7,89.6 C30.4,68.3 24.3,56.8 20.6,57.7 C19.8,57.9 18.9,59.5 18.8,60.5 C15.8,89.7 20.3,95 15.7,94.9 C14,94.8 12.3,95 12,92.7 C11.9,91.8 12,90.8 12,89.9 C11.3,53.6 12.5,50.3 5.9,42.6 C-0.8,34.7 -0.2,25.8 4.7,17.4 C8,11.7 12.4,6.7 16.3,1.4 C17.3,0.1 18.3,0.3 19.2,1.3 C20.4,2.6 21.5,4.1 22.5,5.5 C32.6,19.8 58.3,56 71.8,67.4 C78.3,72.9 87.4,71.4 93,73.5 C141.2,92 140.8,92 144.1,94.2 C146.5,95.8 146.2,97.9 143.5,98.8 C140.9,99.6 138.2,100.2 135.5,100.3 C123.2,100.9 110.8,101.4 98.5,101.9 C98.2,102.2 98.2,102.3 98.2,102.5 Z" id="Shape" class="fill-neutral" fill-rule="nonzero"></path>
            <path d="M140.9,99.6 C136.9,100.6 137.5,100.4 98.2,102.1 C98.2,102.2 98.2,102.4 98.2,102.5 C86.7,102.5 75.2,102.5 63.7,102.5 C53.8,102.6 46.4,98.5 41.7,89.6 C41.7,89.6 41.7,89.6 41.7,89.6 C32.6,72.5 27.1,62.1 23.4,58.8 C22.4,57.9 21.5,57.5 20.7,57.7 C19.9,57.9 19,59.5 18.9,60.5 C17.2,77.2 18,92.3 17.9,92.7 C15.1,92 17.1,90.9 15.6,55.9 C15.5,54.3 15.3,52.7 14.8,51.2 C14,48.5 12.6,46 10.5,43.6 C-0.8,30.3 11,16.9 17.7,8.1 C18,8.2 18.5,8.5 18.9,9 C20,10.1 21.3,12 21.9,12.8 C25.5,17.8 31.1,25.8 37.5,34.4 C37.6,34.6 37.8,34.8 38,35 C48.5,49.1 60.7,64.7 68.4,71.2 C74.6,76.4 83.2,75 88.4,77 C119.1,88.8 128.9,92.6 133,94.5 C134.9,95.4 135.6,95.8 136.6,96.5 C136.8,96.7 137,96.8 137.2,97 C138.1,97.5 139,98 139.8,98.5 C140.2,98.9 140.6,99.2 140.9,99.6 Z" id="Shape" class="fill-primary-200" fill-rule="nonzero"></path>
            <path d="M132.9,94.5 C113.5,96.2 68.5,95.5 58.4,95.5 C51.6,95.5 46,93.6 41.6,89.6 C39.6,87.7 37.9,85.4 36.4,82.7 C30.8,72.2 26.6,64.2 23.3,58.9 C19.7,53.1 17.2,50.4 15.4,50.9 C15.2,51 15,51.1 14.8,51.3 C14,48.6 12.6,46.1 10.5,43.7 C-0.8,30.4 11,17 17.7,8.2 C18,8.3 18.5,8.6 18.9,9.1 C23.5,15.6 30.3,25.1 37.4,34.5 C37.5,34.7 37.7,34.9 37.9,35.1 C48.4,49.2 60.6,64.8 68.3,71.3 C74.5,76.5 83.1,75.1 88.3,77.1 C119.1,88.8 128.8,92.6 132.9,94.5 Z" id="Shape" class="fill-primary-100" fill-rule="nonzero"></path>
            <path d="M3.1,38.7 C2.4,37.3 2,36.5 1.6,35.2 C-1.99840144e-15,29.4 1.2,23.3 4.6,17.5 C7.9,11.8 12.3,6.8 16.2,1.5 C17.2,0.2 18.2,0.4 19.1,1.4 C20.3,2.7 21.4,4.2 22.4,5.6 C35.2,23.6 48.1,41.5 62.4,58.3 C65.2,61.6 68.3,64.7 71.6,67.5 C76.1,71.3 81.9,71.8 87.6,72.5 C89.4,72.7 91.1,73 92.8,73.6 C102.3,77.3 111.8,81 121.4,84.7" id="Shape" class="stroke-primary" stroke-width="3" stroke-linecap="round" stroke-linejoin="round"></path>
            <path d="M5.6,42.4 C5.5,42.3 5.4,42.2 5.3,42" id="Shape" class="stroke-primary" stroke-width="3" stroke-linecap="round" stroke-linejoin="round"></path>
            <path d="M128.5,87.5 C131.3,88.6 134.1,89.7 136.9,90.8 C139.3,91.8 141.8,92.9 143.9,94.4 C146.3,96 146,98.1 143.3,99 C140.7,99.8 138,100.4 135.3,100.5 C101.1,102.3 88.2,102.4 63.7,102.5 C53.8,102.5 46.4,98.5 41.7,89.6 C37.3,81.4 32.8,73.2 28.2,65.1 C27,63 25.4,61 23.7,59.2 C23,58.4 21.5,57.5 20.6,57.8 C19.8,58 18.9,59.6 18.8,60.6 C18.3,65.5 17.9,70.3 17.8,75.2 C17.7,80.9 17.8,86.7 17.9,92.5 C17.9,94.1 17.5,95.1 15.7,95 C14,94.9 12.3,95.1 12,92.8 C11.9,91.9 12,90.9 12,90 C11.8,78.6 11.7,67.2 11.2,55.8 C11.1,53.7 10.7,51.8 10.1,49.9" id="Shape" class="stroke-primary" stroke-width="3" stroke-linecap="round" stroke-linejoin="round"></path>
            <path d="M78.6,64.2 C83,68 87.1,71.1 90.7,73" id="Shape" class="stroke-primary" stroke-width="3" stroke-linecap="round" stroke-linejoin="round"></path>
            <path d="M73.1,59.2 C73.2,59.3 73.4,59.4 73.5,59.6" id="Shape" class="stroke-primary" stroke-width="3" stroke-linecap="round" stroke-linejoin="round"></path>
            <path d="M18.8,1 C22.8,1.9 45.1,30.8 66.1,52.3" id="Shape" class="stroke-primary" stroke-width="3" stroke-linecap="round" stroke-linejoin="round"></path>
        </g>
    </g>
</svg>
